assets/dude/Design–Kitty.svg

<svg width="496" height="105" viewBox="0 0 496 105" fill="none" xmlns="http://www.w3.org/2000/svg">
<path d="M54.1632 2.74003H52.6232C39.8832 2.74003 35.8232 9.60003 30.9232 9.60003C26.0232 9.60003 27.5632 5.54004 24.7632 5.54004C21.9632 5.54004 23.5032 9.60003 18.6032 9.60003C13.7032 9.60003 10.4832 2.74003 2.08324 2.74003C1.80324 2.74003 0.823242 2.74003 0.823242 4.00003C0.823242 5.26003 3.34324 25.28 3.34324 37.74C3.34324 38.44 3.90324 39 4.60324 39H18.4632C19.1632 39 19.7232 39.56 19.7232 40.26V65.46C19.7232 66.16 19.1632 66.72 18.4632 66.72H4.60324C3.90324 66.72 3.34324 67.28 3.34324 67.98C3.34324 80.44 0.823242 100.46 0.823242 101.72C0.823242 102.98 1.80324 102.98 2.08324 102.98C10.4832 102.98 13.7032 96.12 18.6032 96.12C23.5032 96.12 21.9632 100.18 24.7632 100.18C27.5632 100.18 26.0232 96.12 30.9232 96.12C35.8232 96.12 39.8832 102.98 52.6232 102.98H54.1632C72.6432 102.98 87.2032 88.42 87.2032 71.76V33.96C87.2032 17.3 72.6432 2.74003 54.1632 2.74003ZM77.1232 57.9C77.1232 62.8 73.0632 66.72 68.3032 66.72H31.0632C30.3632 66.72 29.8032 66.16 29.8032 65.46V40.26C29.8032 39.56 30.3632 39 31.0632 39H68.3032C73.2032 39 77.1232 42.92 77.1232 47.82V57.9Z" fill="#FF1C31"/>
<path d="M179.609 60.84C179.609 60.14 179.049 59.58 178.349 59.58H171.069C170.369 59.58 169.809 60.14 169.809 60.84C169.809 64.34 167.009 66.72 163.509 66.72H124.169C123.469 66.72 122.909 66.16 122.909 65.46V57.9C122.909 57.2 123.469 56.64 124.169 56.64H135.929C136.629 56.64 137.189 57.2 137.189 57.9V59.16C137.189 59.86 137.749 60.42 138.449 60.42H157.349C158.049 60.42 158.609 59.86 158.609 59.16V46.56C158.609 45.86 158.049 45.3 157.349 45.3H138.449C137.749 45.3 137.189 45.86 137.189 46.56V47.82C137.189 48.52 136.629 49.08 135.929 49.08H124.169C123.469 49.08 122.909 48.52 122.909 47.82V40.26C122.909 39.56 123.469 39 124.169 39H163.509C167.009 39 169.809 41.38 169.809 44.88C169.809 45.58 170.369 46.14 171.069 46.14H178.349C179.049 46.14 179.609 45.58 179.609 44.88V37.74C179.609 25.28 182.129 5.26003 182.129 4.00003C182.129 2.74003 181.009 2.74003 180.869 2.74003C172.749 2.74003 169.249 9.60003 164.349 9.60003C159.449 9.60003 160.849 5.54004 158.189 5.54004C155.389 5.54004 156.929 9.60003 152.029 9.60003C148.529 9.60003 145.729 5.96003 138.029 5.96003C130.469 5.96003 127.389 9.60003 124.029 9.60003C119.129 9.60003 120.669 5.54004 117.869 5.54004C115.069 5.54004 116.609 9.60003 111.709 9.60003C106.809 9.60003 103.589 2.74003 95.1887 2.74003C94.9087 2.74003 93.9287 2.74003 93.9287 4.00003C93.9287 5.26003 96.4487 25.28 96.4487 37.74C96.4487 38.44 97.0087 39 97.7087 39H111.569C112.269 39 112.829 39.56 112.829 40.26V65.46C112.829 66.16 112.269 66.72 111.569 66.72H97.7087C97.0087 66.72 96.4487 67.28 96.4487 67.98C96.4487 80.44 93.9287 100.46 93.9287 101.72C93.9287 102.98 94.9087 102.98 95.1887 102.98C103.309 102.98 106.809 96.12 111.709 96.12C116.609 96.12 115.069 100.18 117.869 100.18C120.669 100.18 119.129 96.12 124.029 96.12C127.529 96.12 130.469 99.76 137.889 99.76C145.589 99.76 148.529 96.12 152.029 96.12C156.929 96.12 155.389 100.18 158.189 100.18C160.849 100.18 159.449 96.12 164.349 96.12C169.249 96.12 172.469 102.98 180.869 102.98C181.009 102.98 182.129 102.98 182.129 101.72C182.129 100.46 179.609 80.44 179.609 67.98V60.84Z" fill="#FF1C31"/>
<path d="M209.245 42.5C209.245 40.4 211.345 38.72 213.445 38.72H237.525C241.025 38.72 243.825 41.1 243.825 44.6C243.825 45.3 244.385 45.86 245.085 45.86H252.365C253.065 45.86 253.625 45.3 253.625 44.6V32C253.625 20.8 249.985 13.52 243.825 9.60003C239.065 6.52003 241.025 0.780029 238.225 0.780029C235.565 0.780029 236.965 4.42003 232.065 4.42003C228.705 4.42003 227.725 2.18003 221.985 2.18003C216.105 2.18003 215.125 4.42003 211.905 4.42003C207.005 4.42003 208.545 0.780029 205.745 0.780029C203.085 0.780029 204.905 6.52003 200.145 9.60003C193.845 13.52 190.345 20.8 190.345 32V35.22C190.345 69.24 238.225 47.96 238.225 63.08C238.225 65.18 236.545 67 234.445 67H205.185C201.685 67 198.885 64.62 198.885 61.12C198.885 60.42 198.325 59.86 197.625 59.86H190.345C189.645 59.86 189.085 60.42 189.085 61.12V73.44C189.085 84.64 192.725 91.78 198.885 95.84C203.645 98.92 201.685 104.66 204.485 104.66C207.285 104.66 205.745 101.02 210.645 101.02C214.005 101.02 217.365 103.68 223.105 103.68C228.985 103.68 232.345 101.02 235.565 101.02C240.465 101.02 239.065 104.66 241.725 104.66C244.525 104.66 242.565 98.92 247.325 95.84C253.485 91.78 257.125 84.64 257.125 73.44V70.5C257.125 36.48 209.245 57.62 209.245 42.5Z" fill="#FF1C31"/>
<path d="M307.013 66.72H293.153C292.453 66.72 291.893 66.16 291.893 65.46V40.26C291.893 39.56 292.453 39 293.153 39H307.013C307.713 39 308.273 38.44 308.273 37.74C308.273 25.28 310.793 5.26003 310.793 4.00003C310.793 2.74003 309.673 2.74003 309.533 2.74003C301.413 2.74003 297.913 9.60003 293.013 9.60003C288.113 9.60003 289.653 5.54004 286.853 5.54004C284.053 5.54004 285.593 9.60003 280.693 9.60003C275.793 9.60003 272.573 2.74003 264.173 2.74003C263.893 2.74003 262.913 2.74003 262.913 4.00003C262.913 5.26003 265.433 25.28 265.433 37.74C265.433 38.44 265.993 39 266.693 39H280.553C281.253 39 281.813 39.56 281.813 40.26V65.46C281.813 66.16 281.253 66.72 280.553 66.72H266.693C265.993 66.72 265.433 67.28 265.433 67.98C265.433 80.44 262.913 100.46 262.913 101.72C262.913 102.98 263.893 102.98 264.173 102.98C272.293 102.98 275.793 96.12 280.693 96.12C285.593 96.12 284.053 100.18 286.853 100.18C289.653 100.18 288.113 96.12 293.013 96.12C297.913 96.12 301.133 102.98 309.533 102.98C309.673 102.98 310.793 102.98 310.793 101.72C310.793 100.46 308.273 80.44 308.273 67.98C308.273 67.28 307.713 66.72 307.013 66.72Z" fill="#FF1C31"/>
<path d="M337.904 38.72H372.204C375.704 38.72 378.504 41.1 378.504 44.6C378.504 45.3 379.064 45.86 379.764 45.86H387.044C387.744 45.86 388.304 45.3 388.304 44.6V32.28C388.304 21.08 384.664 13.94 378.504 9.88003C373.744 6.80004 375.704 1.06003 372.904 1.06003C370.244 1.06003 371.644 4.84004 366.744 4.84004C363.384 4.84004 358.624 2.18003 352.884 2.18003C347.004 2.18003 342.244 4.84004 339.024 4.84004C334.124 4.84004 335.664 1.06003 332.864 1.06003C330.064 1.06003 332.024 6.80004 327.264 9.88003C321.104 13.94 317.464 21.08 317.464 32.28V73.44C317.464 84.64 321.104 91.78 327.264 95.84C332.024 98.92 330.064 104.66 332.864 104.66C335.664 104.66 334.124 100.88 339.024 100.88C342.384 100.88 347.144 103.54 352.884 103.54C358.764 103.54 363.524 100.88 366.744 100.88C371.644 100.88 370.244 104.66 372.904 104.66C375.704 104.66 373.744 98.92 378.504 95.84C384.664 91.78 388.304 84.64 388.304 73.44V51.74C388.304 51.04 387.744 50.48 387.044 50.48H363.104C362.404 50.48 361.844 51.04 361.844 51.74V56.78C361.844 57.48 362.404 58.04 363.104 58.04H376.964C377.664 58.04 378.224 58.6 378.224 59.3V61.12C378.224 64.62 375.424 67 371.924 67H337.904C331.744 67 326.704 61.96 326.704 55.8V49.92C326.704 43.76 331.744 38.72 337.904 38.72Z" fill="#FF1C31"/>
<path d="M494.523 2.74003C486.403 2.74003 482.903 9.60003 478.003 9.60003C473.103 9.60003 474.643 5.54004 471.843 5.54004C469.043 5.54004 470.583 9.60003 465.683 9.60003C460.783 9.60003 457.563 2.74003 449.163 2.74003C448.883 2.74003 447.903 2.74003 447.903 4.00003C447.903 5.26003 450.423 25.28 450.423 37.74C450.423 38.44 450.983 39 451.683 39H465.543C466.243 39 466.803 39.56 466.803 40.26V65.46C466.803 66.16 466.243 66.72 465.543 66.72H457.703C456.583 66.72 456.023 66.16 456.023 66.16L438.103 40.96C438.103 40.96 437.543 40.12 437.543 39.56C437.543 39.28 437.683 39 438.383 39H439.083C439.783 39 440.343 38.44 440.343 37.74C440.343 25.28 442.863 5.26003 442.863 4.00003C442.863 2.74003 441.743 2.74003 441.603 2.74003C433.483 2.74003 429.983 9.60003 425.083 9.60003C420.183 9.60003 421.723 5.54004 418.923 5.54004C416.123 5.54004 417.663 9.60003 412.763 9.60003C407.863 9.60003 404.643 2.74003 396.243 2.74003C395.963 2.74003 394.983 2.74003 394.983 4.00003C394.983 5.26003 397.503 25.28 397.503 37.74C397.503 38.44 398.063 39 398.763 39H412.623C413.323 39 413.883 39.56 413.883 40.26V65.46C413.883 66.16 413.323 66.72 412.623 66.72H398.763C398.063 66.72 397.503 67.28 397.503 67.98C397.503 80.44 394.983 100.46 394.983 101.72C394.983 102.98 395.963 102.98 396.243 102.98C404.363 102.98 407.863 96.12 412.763 96.12C417.663 96.12 416.123 100.18 418.923 100.18C421.723 100.18 420.183 96.12 425.083 96.12C429.983 96.12 433.203 102.98 441.603 102.98C441.743 102.98 442.863 102.98 442.863 101.72C442.863 100.46 440.343 80.44 440.343 67.98C440.343 67.28 439.783 66.72 439.083 66.72H425.223C424.523 66.72 423.963 66.16 423.963 65.46V41.1C423.963 40.54 424.243 40.26 424.523 40.26C425.223 40.26 425.923 41.38 425.923 41.38L467.783 99.9C468.623 101.16 470.163 102 471.843 102C474.643 102 476.883 99.76 476.883 96.96V40.26C476.883 39.56 477.443 39 478.143 39H492.003C492.703 39 493.263 38.44 493.263 37.74C493.263 25.28 495.783 5.26003 495.783 4.00003C495.783 2.74003 494.803 2.74003 494.523 2.74003Z" fill="#FF1C31"/>
</svg>

<svg xmlns="http://www.w3.org/2000/svg" fill="none" viewBox="0 0 496 105"><path fill="#FF1C31" d="M54.163 2.74h-1.54c-12.74 0-16.8 6.86-21.7 6.86-4.9 0-3.36-4.06-6.16-4.06-2.8 0-1.26 4.06-6.16 4.06s-8.12-6.86-16.52-6.86c-.28 0-1.26 0-1.26 1.26s2.52 21.28 2.52 33.74c0 .7.56 1.26 1.26 1.26h13.86c.7 0 1.26.56 1.26 1.26v25.2c0 .7-.56 1.26-1.26 1.26H4.603c-.7 0-1.26.56-1.26 1.26 0 12.46-2.52 32.48-2.52 33.74 0 1.26.98 1.26 1.26 1.26 8.4 0 11.62-6.86 16.52-6.86s3.36 4.06 6.16 4.06c2.8 0 1.26-4.06 6.16-4.06s8.96 6.86 21.7 6.86h1.54c18.48 0 33.04-14.56 33.04-31.22v-37.8c0-16.66-14.56-31.22-33.04-31.22zm22.96 55.16c0 4.9-4.06 8.82-8.82 8.82h-37.24c-.7 0-1.26-.56-1.26-1.26v-25.2c0-.7.56-1.26 1.26-1.26h37.24c4.9 0 8.82 3.92 8.82 8.82V57.9zM179.609 60.84c0-.7-.56-1.26-1.26-1.26h-7.28c-.7 0-1.26.56-1.26 1.26 0 3.5-2.8 5.88-6.3 5.88h-39.34c-.7 0-1.26-.56-1.26-1.26V57.9c0-.7.56-1.26 1.26-1.26h11.76c.7 0 1.26.56 1.26 1.26v1.26c0 .7.56 1.26 1.26 1.26h18.9c.7 0 1.26-.56 1.26-1.26v-12.6c0-.7-.56-1.26-1.26-1.26h-18.9c-.7 0-1.26.56-1.26 1.26v1.26c0 .7-.56 1.26-1.26 1.26h-11.76c-.7 0-1.26-.56-1.26-1.26v-7.56c0-.7.56-1.26 1.26-1.26h39.34c3.5 0 6.3 2.38 6.3 5.88 0 .7.56 1.26 1.26 1.26h7.28c.7 0 1.26-.56 1.26-1.26v-7.14c0-12.46 2.52-32.48 2.52-33.74 0-1.26-1.12-1.26-1.26-1.26-8.12 0-11.62 6.86-16.52 6.86s-3.5-4.06-6.16-4.06c-2.8 0-1.26 4.06-6.16 4.06-3.5 0-6.3-3.64-14-3.64-7.56 0-10.64 3.64-14 3.64-4.9 0-3.36-4.06-6.16-4.06-2.8 0-1.26 4.06-6.16 4.06s-8.12-6.86-16.52-6.86c-.28 0-1.26 0-1.26 1.26s2.52 21.28 2.52 33.74c0 .7.56 1.26 1.26 1.26h13.86c.7 0 1.26.56 1.26 1.26v25.2c0 .7-.56 1.26-1.26 1.26h-13.86c-.7 0-1.26.56-1.26 1.26 0 12.46-2.52 32.48-2.52 33.74 0 1.26.98 1.26 1.26 1.26 8.12 0 11.62-6.86 16.52-6.86s3.36 4.06 6.16 4.06c2.8 0 1.26-4.06 6.16-4.06 3.5 0 6.44 3.64 13.86 3.64 7.7 0 10.64-3.64 14.14-3.64 4.9 0 3.36 4.06 6.16 4.06 2.66 0 1.26-4.06 6.16-4.06s8.12 6.86 16.52 6.86c.14 0 1.26 0 1.26-1.26s-2.52-21.28-2.52-33.74v-7.14zM209.245 42.5c0-2.1 2.1-3.78 4.2-3.78h24.08c3.5 0 6.3 2.38 6.3 5.88 0 .7.56 1.26 1.26 1.26h7.28c.7 0 1.26-.56 1.26-1.26V32c0-11.2-3.64-18.48-9.8-22.4-4.76-3.08-2.8-8.82-5.6-8.82-2.66 0-1.26 3.64-6.16 3.64-3.36 0-4.34-2.24-10.08-2.24-5.88 0-6.86 2.24-10.08 2.24-4.9 0-3.36-3.64-6.16-3.64-2.66 0-.84 5.74-5.6 8.82-6.3 3.92-9.8 11.2-9.8 22.4v3.22c0 34.02 47.88 12.74 47.88 27.86 0 2.1-1.68 3.92-3.78 3.92h-29.26c-3.5 0-6.3-2.38-6.3-5.88 0-.7-.56-1.26-1.26-1.26h-7.28c-.7 0-1.26.56-1.26 1.26v12.32c0 11.2 3.64 18.34 9.8 22.4 4.76 3.08 2.8 8.82 5.6 8.82s1.26-3.64 6.16-3.64c3.36 0 6.72 2.66 12.46 2.66 5.88 0 9.24-2.66 12.46-2.66 4.9 0 3.5 3.64 6.16 3.64 2.8 0 .84-5.74 5.6-8.82 6.16-4.06 9.8-11.2 9.8-22.4V70.5c0-34.02-47.88-12.88-47.88-28zM307.013 66.72h-13.86c-.7 0-1.26-.56-1.26-1.26v-25.2c0-.7.56-1.26 1.26-1.26h13.86c.7 0 1.26-.56 1.26-1.26 0-12.46 2.52-32.48 2.52-33.74 0-1.26-1.12-1.26-1.26-1.26-8.12 0-11.62 6.86-16.52 6.86s-3.36-4.06-6.16-4.06c-2.8 0-1.26 4.06-6.16 4.06s-8.12-6.86-16.52-6.86c-.28 0-1.26 0-1.26 1.26s2.52 21.28 2.52 33.74c0 .7.56 1.26 1.26 1.26h13.86c.7 0 1.26.56 1.26 1.26v25.2c0 .7-.56 1.26-1.26 1.26h-13.86c-.7 0-1.26.56-1.26 1.26 0 12.46-2.52 32.48-2.52 33.74 0 1.26.98 1.26 1.26 1.26 8.12 0 11.62-6.86 16.52-6.86s3.36 4.06 6.16 4.06c2.8 0 1.26-4.06 6.16-4.06s8.12 6.86 16.52 6.86c.14 0 1.26 0 1.26-1.26s-2.52-21.28-2.52-33.74c0-.7-.56-1.26-1.26-1.26zM337.904 38.72h34.3c3.5 0 6.3 2.38 6.3 5.88 0 .7.56 1.26 1.26 1.26h7.28c.7 0 1.26-.56 1.26-1.26V32.28c0-11.2-3.64-18.34-9.8-22.4-4.76-3.08-2.8-8.82-5.6-8.82-2.66 0-1.26 3.78-6.16 3.78-3.36 0-8.12-2.66-13.86-2.66-5.88 0-10.64 2.66-13.86 2.66-4.9 0-3.36-3.78-6.16-3.78-2.8 0-.84 5.74-5.6 8.82-6.16 4.06-9.8 11.2-9.8 22.4v41.16c0 11.2 3.64 18.34 9.8 22.4 4.76 3.08 2.8 8.82 5.6 8.82s1.26-3.78 6.16-3.78c3.36 0 8.12 2.66 13.86 2.66 5.88 0 10.64-2.66 13.86-2.66 4.9 0 3.5 3.78 6.16 3.78 2.8 0 .84-5.74 5.6-8.82 6.16-4.06 9.8-11.2 9.8-22.4v-21.7c0-.7-.56-1.26-1.26-1.26h-23.94c-.7 0-1.26.56-1.26 1.26v5.04c0 .7.56 1.26 1.26 1.26h13.86c.7 0 1.26.56 1.26 1.26v1.82c0 3.5-2.8 5.88-6.3 5.88h-34.02c-6.16 0-11.2-5.04-11.2-11.2v-5.88c0-6.16 5.04-11.2 11.2-11.2zM494.523 2.74c-8.12 0-11.62 6.86-16.52 6.86s-3.36-4.06-6.16-4.06c-2.8 0-1.26 4.06-6.16 4.06s-8.12-6.86-16.52-6.86c-.28 0-1.26 0-1.26 1.26s2.52 21.28 2.52 33.74c0 .7.56 1.26 1.26 1.26h13.86c.7 0 1.26.56 1.26 1.26v25.2c0 .7-.56 1.26-1.26 1.26h-7.84c-1.12 0-1.68-.56-1.68-.56l-17.92-25.2s-.56-.84-.56-1.4c0-.28.14-.56.84-.56h.7c.7 0 1.26-.56 1.26-1.26 0-12.46 2.52-32.48 2.52-33.74 0-1.26-1.12-1.26-1.26-1.26-8.12 0-11.62 6.86-16.52 6.86s-3.36-4.06-6.16-4.06c-2.8 0-1.26 4.06-6.16 4.06s-8.12-6.86-16.52-6.86c-.28 0-1.26 0-1.26 1.26s2.52 21.28 2.52 33.74c0 .7.56 1.26 1.26 1.26h13.86c.7 0 1.26.56 1.26 1.26v25.2c0 .7-.56 1.26-1.26 1.26h-13.86c-.7 0-1.26.56-1.26 1.26 0 12.46-2.52 32.48-2.52 33.74 0 1.26.98 1.26 1.26 1.26 8.12 0 11.62-6.86 16.52-6.86s3.36 4.06 6.16 4.06c2.8 0 1.26-4.06 6.16-4.06s8.12 6.86 16.52 6.86c.14 0 1.26 0 1.26-1.26s-2.52-21.28-2.52-33.74c0-.7-.56-1.26-1.26-1.26h-13.86c-.7 0-1.26-.56-1.26-1.26V41.1c0-.56.28-.84.56-.84.7 0 1.4 1.12 1.4 1.12l41.86 58.52c.84 1.26 2.38 2.1 4.06 2.1 2.8 0 5.04-2.24 5.04-5.04v-56.7c0-.7.56-1.26 1.26-1.26h13.86c.7 0 1.26-.56 1.26-1.26 0-12.46 2.52-32.48 2.52-33.74 0-1.26-.98-1.26-1.26-1.26z"/></svg>
